img/github-logo.svg

<?xml version="1.0" encoding="UTF-8" standalone="no"?>
<svg
   xmlns:dc="http://purl.org/dc/elements/1.1/"
   xmlns:cc="http://creativecommons.org/ns#"
   xmlns:rdf="http://www.w3.org/1999/02/22-rdf-syntax-ns#"
   xmlns:svg="http://www.w3.org/2000/svg"
   xmlns="http://www.w3.org/2000/svg"
   xmlns:sodipodi="http://sodipodi.sourceforge.net/DTD/sodipodi-0.dtd"
   xmlns:inkscape="http://www.inkscape.org/namespaces/inkscape"
   width="100"
   height="100"
   viewBox="0 0 100 100"
   version="1.1"
   id="svg4"
   sodipodi:docname="github-logo.svg"
   style="fill:none"
   inkscape:version="0.92.3 (2405546, 2018-03-11)">
  <metadata
     id="metadata10">
    <rdf:RDF>
      <cc:Work
         rdf:about="">
        <dc:format>image/svg+xml</dc:format>
        <dc:type
           rdf:resource="http://purl.org/dc/dcmitype/StillImage" />
        <dc:title></dc:title>
      </cc:Work>
    </rdf:RDF>
  </metadata>
  <defs
     id="defs8" />
  <sodipodi:namedview
     pagecolor="#ffffff"
     bordercolor="#666666"
     borderopacity="1"
     objecttolerance="10"
     gridtolerance="10"
     guidetolerance="10"
     inkscape:pageopacity="0"
     inkscape:pageshadow="2"
     inkscape:window-width="1366"
     inkscape:window-height="703"
     id="namedview6"
     showgrid="false"
     inkscape:snap-bbox="true"
     inkscape:bbox-paths="true"
     inkscape:bbox-nodes="true"
     inkscape:snap-bbox-midpoints="true"
     inkscape:object-paths="true"
     inkscape:object-nodes="true"
     inkscape:snap-bbox-edge-midpoints="true"
     inkscape:snap-intersection-paths="true"
     inkscape:snap-smooth-nodes="true"
     inkscape:snap-midpoints="true"
     inkscape:snap-object-midpoints="true"
     inkscape:snap-center="true"
     inkscape:snap-text-baseline="true"
     inkscape:snap-page="true"
     inkscape:zoom="2.6074563"
     inkscape:cx="29.753619"
     inkscape:cy="40.194002"
     inkscape:window-x="0"
     inkscape:window-y="0"
     inkscape:window-maximized="1"
     inkscape:current-layer="layer1" />
  <g
     inkscape:groupmode="layer"
     id="layer1"
     inkscape:label="logo">
    <path
       d="M 50.000001,1.2334915 C 22.375001,1.2334915 0,23.608491 0,51.233492 c 0,22.125001 14.3125,40.812501 34.187501,47.437501 2.5,0.4375 3.4375,-1.0625 3.4375,-2.375 0,-1.1875 -0.0625,-5.125 -0.0625,-9.3125 -12.562501,2.3125 -15.8125,-3.0625 -16.8125,-5.875001 -0.5625,-1.4375 -3,-5.874999 -5.125001,-7.062499 -1.75,-0.937501 -4.25,-3.250001 -0.0625,-3.3125 3.937499,-0.0625 6.749999,3.625 7.6875,5.124999 4.5,7.5625 11.6875,5.437501 14.5625,4.125001 0.4375,-3.250001 1.75,-5.437501 3.1875,-6.687501 -11.124999,-1.249999 -22.75,-5.5625 -22.75,-24.687501 0,-5.437499 1.937501,-9.937499 5.125001,-13.4375 C 22.875,33.920992 21.125,28.795991 23.875,21.920992 c 0,0 4.1875,-1.3125 13.750001,5.124999 4,-1.125 8.25,-1.6875 12.5,-1.6875 4.25,0 8.5,0.5625 12.500001,1.6875 9.5625,-6.5 13.75,-5.124999 13.75,-5.124999 2.75,6.874999 1,12 0.5,13.249999 3.1875,3.500001 5.125,7.9375 5.125,13.4375 0,19.187501 -11.6875,23.437502 -22.8125,24.687501 1.812499,1.5625 3.374999,4.562501 3.374999,9.25 0,6.687501 -0.0625,12.062501 -0.0625,13.750001 0,1.3125 0.937499,2.875 3.4375,2.375 C 85.687502,92.045993 100,73.295992 100,51.233492 100,23.608491 77.625001,1.2334915 50.000001,1.2334915 Z"
       id="path2"
       inkscape:connector-curvature="0"
       style="clip-rule:evenodd;fill:#1b1f23;fill-rule:evenodd;stroke-width:6.25000048" />
  </g>
</svg>

<?xml version="1.0" encoding="UTF-8" standalone="no"?>
<svg
   xmlns:dc="http://purl.org/dc/elements/1.1/"
   xmlns:cc="http://creativecommons.org/ns#"
   xmlns:rdf="http://www.w3.org/1999/02/22-rdf-syntax-ns#"
   xmlns:svg="http://www.w3.org/2000/svg"
   xmlns="http://www.w3.org/2000/svg"
   xmlns:sodipodi="http://sodipodi.sourceforge.net/DTD/sodipodi-0.dtd"
   xmlns:inkscape="http://www.inkscape.org/namespaces/inkscape"
   width="100"
   height="100"
   viewBox="0 0 100 100"
   version="1.1"
   id="svg4"
   sodipodi:docname="github-logo.svg"
   style="fill:none"
   inkscape:version="0.92.3 (2405546, 2018-03-11)">
  <metadata
     id="metadata10">
    <rdf:RDF>
      <cc:Work
         rdf:about="">
        <dc:format>image/svg+xml</dc:format>
        <dc:type
           rdf:resource="http://purl.org/dc/dcmitype/StillImage" />
        <dc:title />
      </cc:Work>
    </rdf:RDF>
  </metadata>
  <defs
     id="defs8" />
  <sodipodi:namedview
     pagecolor="#ffffff"
     bordercolor="#666666"
     borderopacity="1"
     objecttolerance="10"
     gridtolerance="10"
     guidetolerance="10"
     inkscape:pageopacity="0"
     inkscape:pageshadow="2"
     inkscape:window-width="1366"
     inkscape:window-height="709"
     id="namedview6"
     showgrid="false"
     inkscape:snap-bbox="true"
     inkscape:bbox-paths="true"
     inkscape:bbox-nodes="true"
     inkscape:snap-bbox-midpoints="true"
     inkscape:object-paths="true"
     inkscape:object-nodes="true"
     inkscape:snap-bbox-edge-midpoints="true"
     inkscape:snap-intersection-paths="true"
     inkscape:snap-smooth-nodes="true"
     inkscape:snap-midpoints="true"
     inkscape:snap-object-midpoints="true"
     inkscape:snap-center="true"
     inkscape:snap-text-baseline="true"
     inkscape:snap-page="true"
     inkscape:zoom="3.1069255"
     inkscape:cx="47.255709"
     inkscape:cy="49.657346"
     inkscape:window-x="0"
     inkscape:window-y="33"
     inkscape:window-maximized="1"
     inkscape:current-layer="layer1" />
  <g
     inkscape:groupmode="layer"
     id="layer1"
     inkscape:label="logo">
    <path
       style="fill:#1b1f23;fill-opacity:1;stroke:none;stroke-width:1;stroke-linecap:round;stroke-linejoin:round;stroke-miterlimit:4;stroke-dasharray:none;stroke-opacity:1;paint-order:stroke fill markers"
       d="M 0 0 L 0 100 L 37.621094 100 C 37.613134 97.930532 37.5625 90.860678 37.5625 86.984375 C 24.999999 89.296875 21.75 83.921876 20.75 81.109375 C 20.1875 79.671875 17.750001 75.234375 15.625 74.046875 C 13.875 73.109374 11.375 70.796875 15.5625 70.734375 C 19.499999 70.671875 22.312499 74.359376 23.25 75.859375 C 27.75 83.421875 34.937499 81.296875 37.8125 79.984375 C 38.25 76.734374 39.5625 74.546875 41 73.296875 C 29.875 72.046876 18.25 67.734376 18.25 48.609375 C 18.25 43.171876 20.1875 38.671876 23.375 35.171875 C 22.874999 33.921876 21.125 28.796874 23.875 21.921875 C 23.875 21.921875 28.062499 20.609376 37.625 27.046875 C 41.625 25.921875 45.875 25.359375 50.125 25.359375 C 54.375 25.359375 58.625 25.921875 62.625 27.046875 C 69.796875 22.171875 73.944337 21.726564 75.570312 21.808594 C 76.112306 21.835935 76.375 21.921875 76.375 21.921875 C 79.125004 28.796874 77.375 33.921876 76.875 35.171875 C 80.062504 38.671876 82 43.109375 82 48.609375 C 82 67.796876 70.312508 72.046876 59.1875 73.296875 C 61 74.859375 62.5625 77.859376 62.5625 82.546875 C 62.5625 88.749212 62.511706 97.317604 62.503906 100 L 100 100 L 100 0 L 0 0 z "
       id="rect845" />
  </g>
</svg>
